**harm	**harte	**timestamp	**phrase	**leadinstrument	**kern
*M3/4	*M3/4	*	*	*	*
*G:	*G:	*	*	*	*G:
1r;	N	0	.	r	1r;
=1	=1	=1	=1	=1	=1
*>A_intro	*>A_intro	*>A_intro	*>A_intro	*>A_intro	*>A_intro
2.I	G:maj	0.232	newline	piano	2G 2b 2dd
=2	=2	=2	=2	=2	=2
2.V	D:maj	1.434	.	piano	2D 2f# 2a
=3	=3	=3	=3	=3	=3
2.IV	C:maj	2.636	.	piano	2C 2e 2g
=4	=4	=4	=4	=4	=4
2.V	D:maj	3.838	.	piano	2D 2f# 2a
=5	=5	=5	=5	=5	=5
2.I	G:maj	5.04	.	piano	2G 2b 2dd
=6	=6	=6	=6	=6	=6
2.V	D:maj	6.242	.	piano	2D 2f# 2a
=7	=7	=7	=7	=7	=7
2.IV	C:maj	7.444	.	piano	2C 2e 2g
=8	=8	=8	=8	=8	=8
2.V	D:maj	8.646	.	piano	2D 2f# 2a
=9	=9	=9	=9	=9	=9
*>B_verse	*>B_verse	*>B_verse	*>B_verse	*>B_verse	*>B_verse
2.I	G:maj	9.848	newline	voice	2G 2b 2dd
=10	=10	=10	=10	=10	=10
2.V	D:maj	11.06	.	voice	2D 2f# 2a
=11	=11	=11	=11	=11	=11
2.IV	C:maj	12.271	.	voice	2C 2e 2g
=12	=12	=12	=12	=12	=12
2.V	D:maj	13.483	.	voice	2D 2f# 2a
=13	=13	=13	=13	=13	=13
2.I	G:maj	14.695	.	voice	2G 2b 2dd
=14	=14	=14	=14	=14	=14
2.V	D:maj	15.906	.	voice	2D 2f# 2a
=15	=15	=15	=15	=15	=15
2.IV	C:maj	17.118	.	voice	2C 2e 2g
=16	=16	=16	=16	=16	=16
2.V	D:maj	18.329	.	voice	2D 2f# 2a
=17	=17	=17	=17	=17	=17
2.I	G:maj	19.541	newline	voice	2G 2b 2dd
=18	=18	=18	=18	=18	=18
2.III7	B:7	20.741	.	voice	2B 2dd# 2ff# 2aa
=19	=19	=19	=19	=19	=19
2.IV	C:maj	21.94	.	voice	2C 2e 2g
=20	=20	=20	=20	=20	=20
2.II	A:maj	23.14	.	voice	2A 2cc# 2ee
=21	=21	=21	=21	=21	=21
2.V	D:maj	24.34	.	voice	2D 2f# 2a
=22	=22	=22	=22	=22	=22
2.V	D:maj	25.54	.	voice	2D 2f# 2a
=23	=23	=23	=23	=23	=23
2.V	D:maj	26.739	.	voice	2D 2f# 2a
=24	=24	=24	=24	=24	=24
2.V	D:maj	27.939	.	voice	2D 2f# 2a
=25	=25	=25	=25	=25	=25
*>B_verse	*>B_verse	*>B_verse	*>B_verse	*>B_verse	*>B_verse
2.I	G:maj	29.139	newline	.	2G 2b 2dd
=26	=26	=26	=26	=26	=26
2.V	D:maj	30.362	.	.	2D 2f# 2a
=27	=27	=27	=27	=27	=27
2.IV	C:maj	31.586	.	.	2C 2e 2g
=28	=28	=28	=28	=28	=28
2.V	D:maj	32.809	.	.	2D 2f# 2a
=29	=29	=29	=29	=29	=29
2.I	G:maj	34.033	.	.	2G 2b 2dd
=30	=30	=30	=30	=30	=30
2.V	D:maj	35.256	.	.	2D 2f# 2a
=31	=31	=31	=31	=31	=31
2.IV	C:maj	36.479	.	.	2C 2e 2g
=32	=32	=32	=32	=32	=32
2.V	D:maj	37.703	.	.	2D 2f# 2a
=33	=33	=33	=33	=33	=33
2.I	G:maj	38.926	newline	.	2G 2b 2dd
=34	=34	=34	=34	=34	=34
2.III7	B:7	40.152	.	.	2B 2dd# 2ff# 2aa
=35	=35	=35	=35	=35	=35
2.IV	C:maj	41.378	.	.	2C 2e 2g
=36	=36	=36	=36	=36	=36
2.II	A:maj	42.604	.	.	2A 2cc# 2ee
=37	=37	=37	=37	=37	=37
2.V	D:maj	43.83	.	.	2D 2f# 2a
=38	=38	=38	=38	=38	=38
2.V	D:maj	45.056	.	.	2D 2f# 2a
=39	=39	=39	=39	=39	=39
2.V	D:maj	46.282	.	.	2D 2f# 2a
=40	=40	=40	=40	=40	=40
2.V	D:maj	47.508	.	.	2D 2f# 2a
=41	=41	=41	=41	=41	=41
*>C_prechorus	*>C_prechorus	*>C_prechorus	*>C_prechorus	*>C_prechorus	*>C_prechorus
2.IV	C:maj	48.733	newline	.	2C 2e 2g
=42	=42	=42	=42	=42	=42
2.IV	C:maj	49.972	.	.	2C 2e 2g
=43	=43	=43	=43	=43	=43
2.V	D:maj	51.211	.	.	2D 2f# 2a
=44	=44	=44	=44	=44	=44
2.V	D:maj	52.45	.	.	2D 2f# 2a
=45	=45	=45	=45	=45	=45
2.I	G:maj	53.689	.	.	2G 2b 2dd
=46	=46	=46	=46	=46	=46
2.III7	B:7	54.928	.	.	2B 2dd# 2ff# 2aa
=47	=47	=47	=47	=47	=47
2.vi	E:min	56.167	.	.	2E 2g 2b
=48	=48	=48	=48	=48	=48
2.II7	A:7	57.405	.	.	2A 2cc# 2ee 2gg
=49	=49	=49	=49	=49	=49
2.V	D:maj	58.644	newline	.	2D 2f# 2a
=50	=50	=50	=50	=50	=50
2.V	D:maj	59.861	.	.	2D 2f# 2a
=51	=51	=51	=51	=51	=51
2.IV	C:maj	61.078	newline	.	2C 2e 2g
=52	=52	=52	=52	=52	=52
2.IV	C:maj	62.31	.	.	2C 2e 2g
=53	=53	=53	=53	=53	=53
2.V	D:maj	63.543	.	.	2D 2f# 2a
=54	=54	=54	=54	=54	=54
2.V	D:maj	64.775	.	.	2D 2f# 2a
=55	=55	=55	=55	=55	=55
2.I	G:maj	66.008	.	.	2G 2b 2dd
=56	=56	=56	=56	=56	=56
2.III7	B:7	67.24	.	.	2B 2dd# 2ff# 2aa
=57	=57	=57	=57	=57	=57
2.vi	E:min	68.472	.	.	2E 2g 2b
=58	=58	=58	=58	=58	=58
2.II7	A:7	69.705	.	.	2A 2cc# 2ee 2gg
=59	=59	=59	=59	=59	=59
2.V	D:maj	70.937	newline	.	2D 2f# 2a
=60	=60	=60	=60	=60	=60
2.V	D:sus4	72.182	.	.	2D 2f# 2a
=61	=61	=61	=61	=61	=61
2.V	D:maj	73.428	.	.	2D 2f# 2a
=62	=62	=62	=62	=62	=62
2.V	D:maj	74.674	.	.	2D 2f# 2a
=63	=63	=63	=63	=63	=63
*>D_chorus	*>D_chorus	*>D_chorus	*>D_chorus	*>D_chorus	*>D_chorus
2.I	G:maj	75.919	newline	.	2G 2b 2dd
=64	=64	=64	=64	=64	=64
2.V	D:maj	77.15	.	.	2D 2f# 2a
=65	=65	=65	=65	=65	=65
2.IV	C:maj	78.382	.	.	2C 2e 2g
=66	=66	=66	=66	=66	=66
2.V	D:maj	79.613	.	.	2D 2f# 2a
=67	=67	=67	=67	=67	=67
2.I	G:maj	80.844	.	.	2G 2b 2dd
=68	=68	=68	=68	=68	=68
2.V	D:maj	82.075	.	.	2D 2f# 2a
=69	=69	=69	=69	=69	=69
2.IV	C:maj	83.306	.	.	2C 2e 2g
=70	=70	=70	=70	=70	=70
2.V	D:maj	84.538	.	.	2D 2f# 2a
=71	=71	=71	=71	=71	=71
2.I	G:maj	85.769	newline	voice	2G 2b 2dd
=72	=72	=72	=72	=72	=72
2.III7	B:7	87.007	.	voice	2B 2dd# 2ff# 2aa
=73	=73	=73	=73	=73	=73
2.IV	C:maj	88.244	.	voice	2C 2e 2g
=74	=74	=74	=74	=74	=74
2.V	D:maj	89.482	.	voice	2D 2f# 2a
=75	=75	=75	=75	=75	=75
2.I	G:maj	90.719	.	voice	2G 2b 2dd
=76	=76	=76	=76	=76	=76
2.V	D:maj	91.957	.	voice	2D 2f# 2a
=77	=77	=77	=77	=77	=77
2.IV	C:maj	93.195	.	voice	2C 2e 2g
=78	=78	=78	=78	=78	=78
2.V	D:maj	94.432	.	voice	2D 2f# 2a
=79	=79	=79	=79	=79	=79
*>B2_solo	*>B2_solo	*>B2_solo	*>B2_solo	*>B2_solo	*>B2_solo
2.I	G:maj	95.67	newline	guitar	2G 2b 2dd
=80	=80	=80	=80	=80	=80
2.V	D:maj	96.903	.	guitar	2D 2f# 2a
=81	=81	=81	=81	=81	=81
2.IV	C:maj	98.136	.	guitar	2C 2e 2g
=82	=82	=82	=82	=82	=82
2.V	D:maj	99.369	.	guitar	2D 2f# 2a
=83	=83	=83	=83	=83	=83
2.I	G:maj	100.602	.	guitar	2G 2b 2dd
=84	=84	=84	=84	=84	=84
2.III7	B:7	101.835	.	guitar	2B 2dd# 2ff# 2aa
=85	=85	=85	=85	=85	=85
2.IV	C:maj	103.068	.	guitar	2C 2e 2g
=86	=86	=86	=86	=86	=86
2.II	A:maj	104.302	.	guitar	2A 2cc# 2ee
=87	=87	=87	=87	=87	=87
2.V	D:maj	105.535	newline	guitar	2D 2f# 2a
=88	=88	=88	=88	=88	=88
2.V	D:maj	106.769	.	guitar	2D 2f# 2a
=89	=89	=89	=89	=89	=89
2.V	D:maj	108.004	.	guitar	2D 2f# 2a
=90	=90	=90	=90	=90	=90
2.V	D:maj	109.239	.	guitar	2D 2f# 2a
=91	=91	=91	=91	=91	=91
*>C_prechorus	*>C_prechorus	*>C_prechorus	*>C_prechorus	*>C_prechorus	*>C_prechorus
2.IV	C:maj	110.473	newline	voice	2C 2e 2g
=92	=92	=92	=92	=92	=92
2.IV	C:maj	111.714	.	voice	2C 2e 2g
=93	=93	=93	=93	=93	=93
2.V	D:maj	112.954	.	voice	2D 2f# 2a
=94	=94	=94	=94	=94	=94
2.V	D:maj	114.194	.	voice	2D 2f# 2a
=95	=95	=95	=95	=95	=95
2.I	G:maj	115.434	.	voice	2G 2b 2dd
=96	=96	=96	=96	=96	=96
2.III7	B:7	116.675	.	voice	2B 2dd# 2ff# 2aa
=97	=97	=97	=97	=97	=97
2.vi	E:min	117.915	.	voice	2E 2g 2b
=98	=98	=98	=98	=98	=98
2.II7	A:7	119.155	.	voice	2A 2cc# 2ee 2gg
=99	=99	=99	=99	=99	=99
2.V	D:maj	120.395	newline	voice	2D 2f# 2a
=100	=100	=100	=100	=100	=100
2.V	D:maj	121.62	.	voice	2D 2f# 2a
=101	=101	=101	=101	=101	=101
2.V	D:maj	122.845	.	voice	2D 2f# 2a
=102	=102	=102	=102	=102	=102
2.V	D:maj	124.07	.	voice	2D 2f# 2a
=103	=103	=103	=103	=103	=103
2.IV	C:maj	125.295	newline	voice	2C 2e 2g
=104	=104	=104	=104	=104	=104
2.IV	C:maj	126.541	.	voice	2C 2e 2g
=105	=105	=105	=105	=105	=105
2.V	D:maj	127.787	.	voice	2D 2f# 2a
=106	=106	=106	=106	=106	=106
2.V	D:maj	129.033	.	voice	2D 2f# 2a
=107	=107	=107	=107	=107	=107
2.I	G:maj	130.278	.	voice	2G 2b 2dd
=108	=108	=108	=108	=108	=108
2.III7	B:7	131.524	.	voice	2B 2dd# 2ff# 2aa
=109	=109	=109	=109	=109	=109
2.vi	E:min	132.77	.	voice	2E 2g 2b
=110	=110	=110	=110	=110	=110
2.II7	A:7	134.016	.	voice	2A 2cc# 2ee 2gg
=111	=111	=111	=111	=111	=111
2.V	D:maj	135.262	newline	voice	2D 2f# 2a
=112	=112	=112	=112	=112	=112
2.V	D:sus4	136.508	.	voice	2D 2f# 2a
=113	=113	=113	=113	=113	=113
2.V	D:maj	137.755	.	voice	2D 2f# 2a
=114	=114	=114	=114	=114	=114
2.V	D:maj	139.001	.	voice	2D 2f# 2a
=115	=115	=115	=115	=115	=115
*>D_chorus	*>D_chorus	*>D_chorus	*>D_chorus	*>D_chorus	*>D_chorus
2.I	G:maj	140.247	newline	.	2G 2b 2dd
=116	=116	=116	=116	=116	=116
2.V	D:maj	141.492	.	.	2D 2f# 2a
=117	=117	=117	=117	=117	=117
2.IV	C:maj	142.738	.	.	2C 2e 2g
=118	=118	=118	=118	=118	=118
2.V	D:maj	143.983	.	.	2D 2f# 2a
=119	=119	=119	=119	=119	=119
2.I	G:maj	145.228	.	.	2G 2b 2dd
=120	=120	=120	=120	=120	=120
2.V	D:maj	146.473	.	.	2D 2f# 2a
=121	=121	=121	=121	=121	=121
2.IV	C:maj	147.718	.	.	2C 2e 2g
=122	=122	=122	=122	=122	=122
2.V	D:maj	148.963	.	.	2D 2f# 2a
=123	=123	=123	=123	=123	=123
2.I	G:maj	150.208	newline	voice	2G 2b 2dd
=124	=124	=124	=124	=124	=124
2.III7	B:7	151.456	.	voice	2B 2dd# 2ff# 2aa
=125	=125	=125	=125	=125	=125
2.IV	C:maj	152.703	.	voice	2C 2e 2g
=126	=126	=126	=126	=126	=126
2.V	D:maj	153.95	.	voice	2D 2f# 2a
=127	=127	=127	=127	=127	=127
2.I	G:maj	155.197	.	voice	2G 2b 2dd
=128	=128	=128	=128	=128	=128
2.V	D:maj	156.444	.	voice	2D 2f# 2a
=129	=129	=129	=129	=129	=129
2.IV	C:maj	157.691	.	voice	2C 2e 2g
=130	=130	=130	=130	=130	=130
2.V	D:maj	158.938	.	voice	2D 2f# 2a
=131	=131	=131	=131	=131	=131
*>D2_outro	*>D2_outro	*>D2_outro	*>D2_outro	*>D2_outro	*>D2_outro
2.I	G:maj	160.185	newline	guitar	2G 2b 2dd
=132	=132	=132	=132	=132	=132
2.V	D:maj	161.431	.	guitar	2D 2f# 2a
=133	=133	=133	=133	=133	=133
2.IV	C:maj	162.677	.	guitar	2C 2e 2g
=134	=134	=134	=134	=134	=134
2.V	D:maj	163.922	.	guitar	2D 2f# 2a
=135	=135	=135	=135	=135	=135
2.I	G:maj	165.168	.	guitar	2G 2b 2dd
=136	=136	=136	=136	=136	=136
2.III7	B:7	166.414	.	guitar	2B 2dd# 2ff# 2aa
=137	=137	=137	=137	=137	=137
2.IV	C:maj	167.66	.	guitar	2C 2e 2g
=138	=138	=138	=138	=138	=138
2.V	D:maj	168.906	.	guitar	2D 2f# 2a
=139	=139	=139	=139	=139	=139
*>_fadeout	*>_fadeout	*>_fadeout	*>_fadeout	*>_fadeout	*>_fadeout
2.I	G:maj	170.152	newline	.	2G 2b 2dd
=140	=140	=140	=140	=140	=140
2.V	D:maj	171.403	.	.	2D 2f# 2a
=141	=141	=141	=141	=141	=141
2.IV	C:maj	172.654	.	.	2C 2e 2g
=142	=142	=142	=142	=142	=142
2.V	D:maj	173.905	.	.	2D 2f# 2a
=143	=143	=143	=143	=143	=143
2.I	G:maj	175.156	.	.	2G 2b 2dd
=144	=144	=144	=144	=144	=144
2.V	D:maj	176.407	.	.	2D 2f# 2a
=145	=145	=145	=145	=145	=145
2.IV	C:maj	177.658	.	.	2C 2e 2g
=146	=146	=146	=146	=146	=146
2.V	D:maj	178.909	.	.	2D 2f# 2a
=147	=147	=147	=147	=147	=147
2.I	G:maj	180.16	newline	guitar	2G 2b 2dd
=148	=148	=148	=148	=148	=148
2.III7	B:7	181.401	.	guitar	2B 2dd# 2ff# 2aa
=149	=149	=149	=149	=149	=149
2.IV	C:maj	182.643	.	guitar	2C 2e 2g
=150	=150	=150	=150	=150	=150
2.V	D:maj	183.885	.	guitar	2D 2f# 2a
=151	=151	=151	=151	=151	=151
2.I	G:maj	185.126	.	guitar	2G 2b 2dd
=152	=152	=152	=152	=152	=152
2.V	D:maj	186.368	.	guitar	2D 2f# 2a
=153	=153	=153	=153	=153	=153
2.IV	C:maj	187.61	.	guitar	2C 2e 2g
=154	=154	=154	=154	=154	=154
2.V	D:maj	188.851	.	guitar	2D 2f# 2a
1r;	N	191.541	.	r	1r;
1r;	N	195.683	.	r	1r;
*-	*-	*-	*-	*-	*-
!!!OTL: Years From Now
!!!COC: Dr. Hook
!!!BillboardChartDate: 1980/08/16
!!!BillboardPeak: 51
!!!BillboardWeeksOnChart: 9
!!!SampleTargetRank: 79
!!!SampleActualRank: 79
!!!SampleID#: 0656
!!!RDF**harmony: **recip + pitch class of root + harmonic quality
!!!RDF**harte: Chris Harte's syntax, used by MIREX
!!!RDF**phrase: newline = linebreak in original McGill transcription
!!!RDF**timestamp: McGill audio timestamp in seconds
!!!RDF**leadinstrument: original McGill primary instrumentation annotation
!!!RDT: 2017/01/12/
!!!ENC: Nathaniel Condit-Schultz
!!!EST: Awating manual error checking and editing.
